src/actions/24/snap-extension.svg

<svg viewBox="0 0 24 24" xmlns="http://www.w3.org/2000/svg">
 <defs>
  <style type="text/css">.ColorScheme-Text {
        color:#2e3440;
      }</style>
 </defs>
 <path class="ColorScheme-Text" d="m5 4v7h-1v3h1v6h1v-6h1v-3h-1v-7h-1zm7 7v3h3v-1h5v-1h-5v-1h-3zm-4 1v1h1v-1h-1zm2 0v1h1v-1h-1z" fill="currentColor"/>
</svg>

<svg xmlns="http://www.w3.org/2000/svg" viewBox="0 0 24 24">
  <defs id="defs3051">
    <style type="text/css" id="current-color-scheme">
      .ColorScheme-Text {
        color:#2e3440;
      }
      </style>
  </defs>
 <path style="fill:currentColor;fill-opacity:1;stroke:none" 
     d="M 5 4 L 5 11 L 4 11 L 4 14 L 5 14 L 5 20 L 6 20 L 6 14 L 7 14 L 7 11 L 6 11 L 6 4 L 5 4 z M 12 11 L 12 14 L 15 14 L 15 13 L 20 13 L 20 12 L 15 12 L 15 11 L 12 11 z M 8 12 L 8 13 L 9 13 L 9 12 L 8 12 z M 10 12 L 10 13 L 11 13 L 11 12 L 10 12 z "
     class="ColorScheme-Text"
     />
</svg>
